src/assets/sort-icon-white.svg

<svg width="18" height="18" viewBox="0 0 23 23" fill="none" xmlns="http://www.w3.org/2000/svg">
<path d="M4.56337 0.554902C4.76382 0.302783 5.04335 0.125537 5.35687 0.0517524C5.61274 -0.0172508 5.88443 -0.0172508 6.13887 0.0517524C6.45395 0.124645 6.73513 0.301969 6.93668 0.554902L11.068 4.52115C11.6416 5.06886 11.6416 5.95872 11.068 6.50787L11.022 6.55099C10.7419 6.81566 10.371 6.96311 9.98561 6.96311C9.60019 6.96311 9.22937 6.81566 8.94918 6.55099L7.24718 4.91936V15.8132C7.24718 16.6068 6.60606 17.2508 5.81399 17.2508H5.68462C5.304 17.25 4.93925 17.0982 4.67052 16.8287C4.40179 16.5591 4.25105 16.1939 4.25143 15.8132V4.91648L2.548 6.55243C2.26781 6.8171 1.89699 6.96455 1.51156 6.96455C1.12614 6.96455 0.755318 6.8171 0.475126 6.55243L0.429126 6.50787C0.293633 6.38031 0.185667 6.22639 0.111869 6.05556C0.0380702 5.88472 0 5.7006 0 5.51451C0 5.32842 0.0380702 5.14429 0.111869 4.97346C0.185667 4.80263 0.293633 4.6487 0.429126 4.52115L4.56337 0.554902ZM18.4352 22.4462C18.2348 22.6983 17.9552 22.8755 17.6417 22.9493C17.3854 23.0169 17.116 23.0169 16.8597 22.9493C16.5446 22.8765 16.2634 22.6992 16.0619 22.4462L11.9305 18.4799C11.7951 18.3524 11.6871 18.1984 11.6133 18.0276C11.5395 17.8568 11.5014 17.6727 11.5014 17.4866C11.5014 17.3005 11.5395 17.1164 11.6133 16.9455C11.6871 16.7747 11.7951 16.6208 11.9305 16.4932L11.9765 16.4501C12.2567 16.1854 12.6276 16.038 13.013 16.038C13.3984 16.038 13.7692 16.1854 14.0494 16.4501L15.7529 18.0817V7.18784C15.7529 6.3943 16.394 5.75027 17.186 5.75027H17.3154C18.106 5.75027 18.7486 6.3943 18.7486 7.18784V18.0846L20.452 16.4501C20.7322 16.1854 21.103 16.038 21.4885 16.038C21.8739 16.038 22.2447 16.1854 22.5249 16.4501L22.5709 16.4946C23.143 17.0438 23.143 17.9322 22.5709 18.4814L18.4352 22.4462Z" fill="#FFF"/>
</svg>

<svg width="18" height="18" viewBox="0 0 23 23" fill="none" xmlns="http://www.w3.org/2000/svg"><path d="M4.563.555c.2-.252.48-.43.794-.503.256-.07.527-.07.782 0 .315.073.596.25.798.503l4.131 3.966a1.362 1.362 0 010 1.987l-.046.043a1.51 1.51 0 01-2.073 0L7.247 4.919v10.894c0 .794-.64 1.438-1.433 1.438h-.13a1.436 1.436 0 01-1.433-1.438V4.916L2.548 6.552a1.51 1.51 0 01-2.073 0L.43 6.508a1.364 1.364 0 010-1.987L4.563.555zm13.872 21.891c-.2.252-.48.43-.793.503a1.533 1.533 0 01-.782 0 1.432 1.432 0 01-.798-.503L11.93 18.48a1.365 1.365 0 010-1.987l.046-.043a1.51 1.51 0 012.073 0l1.704 1.632V7.188c0-.794.641-1.438 1.433-1.438h.13c.79 0 1.433.644 1.433 1.438v10.897l1.703-1.635a1.51 1.51 0 012.073 0l.046.045a1.364 1.364 0 010 1.986l-4.136 3.965z" fill="#FFF"/></svg>
